X: 842
M: C
L: 1/8
K: Amix
V: 1
f |\
|: B |\
cA (c/d/e) TcATcA | BE E/E/E dBG :|
V: 2 clef=bass middle=d
z |\
a2a2 a2a2 | a2a2 g2g2 |\
a2a2 a2a2 | e2e2 g2g :|\
|: z |
a2a2 a2a2 | a2a2 g2g2 |\
a2a2 a2a2 | e2e2 g2g :|

